brandFactory_export/3.Masa/Videojuegos _3Masa.svg

<?xml version="1.0" encoding="UTF-8"?>
<svg width="24px" height="24px" viewBox="0 0 24 24" version="1.1" xmlns="http://www.w3.org/2000/svg" xmlns:xlink="http://www.w3.org/1999/xlink">
    <title>3.Masa/Videojuegos _3Masa</title>
    <g id="Symbols" stroke="none" stroke-width="1" fill="none" fill-rule="evenodd">
        <g id="3.Masa/Videojuegos-_3Masa" fill="#5CB615" fill-rule="nonzero">
            <path d="M19.3243697,11.1529412 C19.1596639,11.307563 18.9243697,11.3848739 18.6218487,11.3848739 C18.3193277,11.3848739 18.0840336,11.307563 17.9193277,11.1529412 C17.7478992,10.9915966 17.6638655,10.7563025 17.6638655,10.4436975 C17.6638655,10.1310924 17.7512605,9.89243697 17.9193277,9.73109244 C18.0840336,9.57647059 18.3193277,9.49579832 18.6218487,9.49579832 C18.9243697,9.49579832 19.1596639,9.57647059 19.3243697,9.73109244 C19.4957983,9.89243697 19.5831933,10.1310924 19.5831933,10.4436975 C19.5798319,10.7563025 19.492437,10.994958 19.3243697,11.1529412 M17.3815126,9.27058824 C17.2201681,9.42521008 16.9815126,9.50252101 16.6789916,9.50252101 C16.3798319,9.50252101 16.1411765,9.42521008 15.9764706,9.27058824 C15.8084034,9.1092437 15.7243697,8.86722689 15.7243697,8.56134454 C15.7243697,8.25210084 15.8117647,8.01344538 15.9764706,7.85210084 C16.1411765,7.69411765 16.3764706,7.61680672 16.6789916,7.61680672 C16.9815126,7.61680672 17.2168067,7.69411765 17.3815126,7.85210084 C17.5529412,8.01344538 17.6369748,8.25210084 17.6369748,8.56134454 C17.6369748,8.87058824 17.5529412,9.1092437 17.3815126,9.27058824 M17.3815126,13.0386555 C17.2201681,13.1966387 16.9815126,13.2739496 16.6789916,13.2739496 C16.3798319,13.2739496 16.1411765,13.1966387 15.9764706,13.0386555 C15.8084034,12.8773109 15.7243697,12.6386555 15.7243697,12.3294118 C15.7243697,12.0201681 15.8117647,11.7815126 15.9764706,11.6201681 C16.1411765,11.4621849 16.3764706,11.3848739 16.6789916,11.3848739 C16.9815126,11.3848739 17.2168067,11.4655462 17.3815126,11.6201681 C17.5529412,11.7815126 17.6369748,12.0201681 17.6369748,12.3294118 C17.6369748,12.6386555 17.5529412,12.8773109 17.3815126,13.0386555 M15.4386555,11.1529412 C15.2739496,11.307563 15.0386555,11.3848739 14.7361345,11.3848739 C14.4336134,11.3848739 14.1983193,11.307563 14.0336134,11.1529412 C13.8655462,10.9915966 13.7781513,10.7563025 13.7781513,10.4436975 C13.7781513,10.1310924 13.8655462,9.89243697 14.0336134,9.73109244 C14.1983193,9.57647059 14.4336134,9.49579832 14.7361345,9.49579832 C15.0386555,9.49579832 15.2739496,9.57647059 15.4386555,9.73109244 C15.6067227,9.89243697 15.6941176,10.1310924 15.6941176,10.4436975 C15.697479,10.7563025 15.610084,10.994958 15.4386555,11.1529412 M9.54621849,11.3781513 C9.3210084,11.589916 8.99159664,11.697479 8.56470588,11.697479 L8.4302521,11.697479 L8.43361345,11.7243697 C8.45042017,11.7983193 8.45714286,11.8756303 8.45714286,11.9361345 C8.45714286,12.3731092 8.3394958,12.7058824 8.11092437,12.9210084 C7.88907563,13.1327731 7.55630252,13.2403361 7.12941176,13.2403361 C6.69915966,13.2403361 6.3697479,13.1327731 6.14789916,12.9210084 C5.92268908,12.712605 5.80504202,12.3764706 5.80504202,11.9361345 C5.80504202,11.8957983 5.81848739,11.7915966 5.82521008,11.7478992 C5.77478992,11.7546218 5.73781513,11.7546218 5.62352941,11.7546218 C5.19327731,11.7546218 4.86386555,11.6470588 4.63865546,11.4352941 C4.41344538,11.2235294 4.29579832,10.8907563 4.29579832,10.4504202 C4.29579832,10.010084 4.41344538,9.68067227 4.64201681,9.45882353 C4.8605042,9.25042017 5.19327731,9.14285714 5.62016807,9.14285714 C5.65714286,9.14285714 5.76134454,9.15294118 5.79495798,9.15630252 L5.81848739,9.15630252 C5.81176471,9.09579832 5.80504202,9.03529412 5.80504202,8.96470588 C5.80504202,8.52436975 5.92268908,8.19159664 6.15462185,7.97647059 C6.37310924,7.76806723 6.70252101,7.6605042 7.13277311,7.6605042 C7.55966387,7.6605042 7.88907563,7.76806723 8.11428571,7.97983193 C8.34621849,8.19831933 8.4605042,8.53109244 8.4605042,8.96806723 C8.4605042,8.99159664 8.45714286,9.05210084 8.45378151,9.09579832 C8.47394958,9.09243697 8.51428571,9.08907563 8.56806723,9.08907563 C8.99495798,9.08907563 9.32436975,9.19663866 9.54957983,9.40840336 C9.78151261,9.63361345 9.89579832,9.96638655 9.89579832,10.4 C9.89243697,10.8268908 9.77478992,11.1596639 9.54621849,11.3781513 M21.0722689,6.78655462 C21.0016807,6.61512605 20.9411765,6.46722689 20.8907563,6.35294118 C20.8436975,6.24201681 20.8235294,6.21176471 20.810084,6.18487395 L20.7394958,6.05042017 C20.5579832,5.72773109 20.3495798,5.42857143 20.0840336,5.17647059 C19.2672269,4.4 18.1109244,4.00672269 16.6453782,4.00672269 C16.0436975,4.00672269 15.5058824,4.0907563 15.0117647,4.21848739 C14.7193277,4.29579832 14.0705882,4.58151261 14.0571429,4.58823529 C14.0571429,4.58823529 13.5596639,4.86722689 13.4016807,4.97478992 C12.9210084,5.29747899 12.3663866,5.45882353 11.8117647,5.45882353 C11.2537815,5.45882353 10.6991597,5.29747899 10.2218487,4.97478992 C10.0605042,4.86722689 9.56638655,4.58823529 9.56638655,4.58823529 C9.55630252,4.58151261 8.90756303,4.29579832 8.61512605,4.21848739 C8.1210084,4.08739496 7.58319328,4.00672269 6.98151261,4.00672269 C5.51596639,4.00672269 4.35966387,4.4 3.54621849,5.17647059 C3.28067227,5.42857143 3.07226891,5.72773109 2.88739496,6.05042017 L2.82016807,6.18487395 C2.80672269,6.21176471 2.78655462,6.24537815 2.7394958,6.35294118 C2.68907563,6.46722689 2.62521008,6.61512605 2.55462185,6.78655462 C1.88235294,8.4 -0.043697479,12.3428571 0.00336134454,15.7848739 C0.0100840336,16.2823529 0.198319328,17.2705882 0.346218487,17.7478992 C0.638655462,18.6991597 1.3210084,19.3109244 2.07058824,19.5563025 C2.37647059,19.6571429 2.78991597,19.7277311 3.08907563,19.7512605 C3.11932773,19.7512605 3.14957983,19.7546218 3.18319328,19.7546218 C3.60336134,19.7546218 4.32268908,19.5831933 4.69579832,19.4151261 C4.92436975,19.3109244 5.24369748,19.1428571 5.62016807,18.8201681 C5.84537815,18.6252101 5.94285714,18.497479 6.31596639,18.0369748 C6.57815126,17.7142857 6.81008403,17.3613445 7.11260504,17.0722689 C7.80840336,16.4067227 8.69579832,15.9327731 9.74789916,15.6403361 C10.4201681,15.4554622 11.1193277,15.3579832 11.8184874,15.3579832 C12.5176471,15.3579832 13.2134454,15.4521008 13.8857143,15.6403361 C14.9411765,15.9361345 15.8252101,16.4067227 16.5210084,17.0722689 C16.8268908,17.3613445 17.0588235,17.7142857 17.3210084,18.0369748 C17.6941176,18.4941176 17.7915966,18.6252101 18.0168067,18.8201681 C18.3932773,19.1428571 18.7294118,19.3109244 18.9579832,19.4151261 C19.3613445,19.5932773 20.1478992,19.7512605 20.5478992,19.7512605 C20.8470588,19.7512605 21.2605042,19.6571429 21.5663866,19.5563025 C22.312605,19.3109244 22.9983193,18.6991597 23.2907563,17.7478992 C23.4352941,17.2739496 23.6235294,16.2823529 23.6302521,15.7848739 C23.6705882,12.3462185 21.7445378,8.40336134 21.0722689,6.78655462" id="Videojuegos-_3Masa"></path>
        </g>
    </g>
</svg>

<svg width="24" height="24" viewBox="0 0 24 24" xmlns="http://www.w3.org/2000/svg"><path d="M19.324 11.153c-.164.155-.4.232-.702.232-.303 0-.538-.077-.703-.232-.171-.161-.255-.397-.255-.71 0-.312.087-.55.255-.712.165-.155.4-.235.703-.235.302 0 .538.08.702.235.172.161.26.4.26.713-.004.312-.092.551-.26.709M17.382 9.27c-.162.154-.4.232-.703.232-.3 0-.538-.078-.703-.232-.168-.162-.252-.404-.252-.71 0-.309.088-.548.252-.709.165-.158.4-.235.703-.235.303 0 .538.077.703.235.17.161.255.4.255.71 0 .309-.084.547-.255.709m0 3.768c-.162.158-.4.235-.703.235-.3 0-.538-.077-.703-.235-.168-.162-.252-.4-.252-.71 0-.309.088-.547.252-.709.165-.158.4-.235.703-.235.303 0 .538.08.703.235.17.162.255.4.255.71 0 .309-.084.547-.255.709m-1.943-1.886c-.165.155-.4.232-.703.232-.302 0-.538-.077-.702-.232-.168-.161-.256-.397-.256-.71 0-.312.088-.55.256-.712.164-.155.4-.235.702-.235.303 0 .538.08.703.235.168.161.255.4.255.713.003.312-.084.551-.255.709m-5.893.225c-.225.212-.554.32-.981.32H8.43l.004.026a.994.994 0 01.023.212c0 .437-.118.77-.346.985-.222.212-.555.32-.982.32-.43 0-.76-.108-.981-.32-.225-.208-.343-.545-.343-.985 0-.04.013-.144.02-.188-.05.007-.087.007-.201.007-.43 0-.76-.108-.985-.32-.226-.211-.343-.544-.343-.985 0-.44.117-.77.346-.991.219-.209.551-.316.978-.316.037 0 .141.01.175.013h.023c-.006-.06-.013-.12-.013-.191 0-.44.118-.773.35-.989.218-.208.548-.315.978-.315.427 0 .756.107.981.319.232.218.347.551.347.988 0 .024-.004.084-.007.128a.782.782 0 01.114-.007c.427 0 .756.108.982.32.232.225.346.557.346.991-.004.427-.121.76-.35.978m11.526-4.591c-.07-.172-.13-.32-.181-.434-.047-.111-.067-.141-.08-.168l-.072-.135a3.65 3.65 0 00-.655-.874c-.817-.776-1.973-1.17-3.439-1.17-.601 0-1.14.085-1.633.212-.293.078-.941.364-.955.37 0 0-.497.28-.655.387a2.85 2.85 0 01-3.18 0c-.161-.108-.656-.387-.656-.387-.01-.006-.658-.292-.95-.37a6.305 6.305 0 00-1.634-.211c-1.466 0-2.622.393-3.436 1.17a3.755 3.755 0 00-.659.873l-.067.135c-.013.027-.033.06-.08.168-.05.114-.115.262-.185.434C1.882 8.4-.044 12.343.003 15.785c.007.497.195 1.486.343 1.963.293.951.975 1.563 1.725 1.808.305.101.719.172 1.018.195.03 0 .06.004.094.004.42 0 1.14-.172 1.513-.34a3.8 3.8 0 00.924-.595c.225-.195.323-.323.696-.783.262-.323.494-.676.797-.965.695-.665 1.583-1.14 2.635-1.432a7.827 7.827 0 012.07-.282c.7 0 1.395.094 2.068.282 1.055.296 1.94.767 2.635 1.432.306.29.538.642.8.965.373.457.47.588.696.783.376.323.712.49.941.595.403.178 1.19.336 1.59.336.3 0 .713-.094 1.018-.195.747-.245 1.432-.857 1.725-1.808.144-.474.333-1.466.34-1.963.04-3.439-1.886-7.382-2.559-8.998" fill="#5CB615" fill-rule="nonzero"/></svg>
